!!!COA:	Josquin des Prez
!!!CDT:	~1450-1521/08/27
!!!OTL:	Conserva me domine
!!!AGN:	Motet
!!!SCT:	NJE 15.10
!!!SCA:	New Josquin Edition 15.10
!!!voices:	4
**kern	**kern	**kern	**kern
*staff4	*staff3	*staff2	*staff1
*Ivox	*Ivox	*Ivox	*Ivox
*I"Bassus	*I"Tenor	*I"Altus	*I"Superius
*I'B	*I'T	*I'A	*I'S
*clefF4	*clefGv2	*clefGv2	*clefG2
*k[]	*k[]	*k[]	*k[]
*M2/1	*M2/1	*M2/1	*M2/1
*met(C|)	*met(C|)	*met(C|)	*met(C|)
*>A	*>A	*>A	*>A
=1-	=1-	=1-	=1-
0r	0r	0f	0r
=2	=2	=2	=2
0r	0r	1f	0r
.	.	1d	.
=3	=3	=3	=3
0F	0r	1c	0r
.	.	2r	.
.	.	[2A/	.
=4	=4	=4	=4
1F	0r	4A/]	0r
.	.	4B\	.
.	.	1c	.
1D	.	.	.
.	.	2B\	.
=5	=5	=5	=5
1C	0r	0c	0cc
[1F	.	.	.
=6	=6	=6	=6
2F\]	0r	0r	1cc
2F\	.	.	.
1F	.	.	1a
=7	=7	=7	=7
2r	0c	2r	1g
1C	.	2c\	.
.	.	2c\	2r
2C/	.	2A/	[2e/
=8	=8	=8	=8
2C/	1c	1G	4e/]
.	.	.	4f/
2C/	.	.	1g
1D	1A	1r	.
.	.	.	2f/
=9	=9	=9	=9
1E	1G	2r	0g
.	.	1E	.
1C	[1c	.	.
.	.	2E/	.
=10	=10	=10	=10
0AA	2c\]	2E/	0r
.	2c\	2E/	.
.	1c	1F	.
=11	=11	=11	=11
1r	0r	1E	2r
.	.	.	1g
2.C/	.	2r	.
.	.	[2c\	2g/
4C/	.	.	.
=12	=12	=12	=12
2C/	2.E/	2c\]	2g/
2C/	.	2c\	2g/
.	4E/	.	.
1AA	2E/	2c\	1a
.	2E/	2c\	.
=13	=13	=13	=13
1GG	1G	1d	1b
2r	1E	2.e\	2.g/
2G\	.	.	.
.	.	4d\	4f/
=14	=14	=14	=14
2A\	0r	4c\	2e/
.	.	4B\	.
2F\	.	2A/	1a
1E	.	1B	.
.	.	.	2g#i/
=15	=15	=15	=15
1AA	2r	0A	[0a
.	1c	.	.
2r	.	.	.
[2F\	2c\	.	.
=16	=16	=16	=16
2F\]	2c\	1r	0a]
2F\	2c\	.	.
2F\	1d	1r	.
2F\	.	.	.
=17	=17	=17	=17
1G	1e	0r	0r
2.A\	2.c\	.	.
4G\	4B\	.	.
=18	=18	=18	=18
4F\	2A/	0r	0r
4E\	.	.	.
2D\	1d	.	.
1E	.	.	.
.	2c#i\	.	.
=19	=19	=19	=19
0D	0d	2r	2r
.	.	1f	1a
.	.	2f\	2a/
=20	=20	=20	=20
0r	0r	2f\	2a/
.	.	2f\	2a/
.	.	1g	1b
=21	=21	=21	=21
0r	0r	2f\	2a/
.	.	2d\	1dd
.	.	1e	.
.	.	.	2cc#i\
=22	=22	=22	=22
2r	1r	0d	0dd
1D	.	.	.
.	2r	.	.
2D\	[2A/	.	.
=23	=23	=23	=23
2F\	2A/]	0r	0r
2F\	2A/	.	.
1F	2c\	.	.
.	2c\	.	.
=24	=24	=24	=24
2r	1c	0r	0r
2F\	.	.	.
2F\	2r	.	.
2F\	2c\	.	.
=25	=25	=25	=25
2E\	2c\	1r	0r
2E\	2c\	.	.
[1D	2B\	2r	.
.	2B\	2d\	.
=26	=26	=26	=26
1D]	0A	1d	2r
.	.	.	1a
1r	.	2f\	.
.	.	2f\	2a/
=27	=27	=27	=27
0r	0r	1f	2cc\
.	.	.	2cc\
.	.	2r	1cc
.	.	2f\	.
=28	=28	=28	=28
0r	0r	2f\	2r
.	.	2f\	2cc\
.	.	1e	2cc\
.	.	.	2cc\
=29	=29	=29	=29
0r	0r	2d\	2b\
.	.	1g	2g/
.	.	.	1a
.	.	2f#i\	.
=30	=30	=30	=30
2.E\	1r	0g	0g
4E\	.	.	.
2E\	2.B\	.	.
2E\	.	.	.
.	4B\	.	.
=31	=31	=31	=31
1G	2B\	0r	0r
.	2B\	.	.
2F\	1d	.	.
2D\	.	.	.
=32	=32	=32	=32
1F	2c\	1r	0r
.	2A/	.	.
1E	1c	2.e\	.
.	.	4e\	.
=33	=33	=33	=33
0r	0B	2e\	2.b\
.	.	2e\	.
.	.	.	4b\
.	.	1g	1b
=34	=34	=34	=34
0r	0r	2f\	1dd
.	.	2d\	.
.	.	1f	2cc\
.	.	.	2a/
=35	=35	=35	=35
2.C/	2r	0e	1cc
.	2.G/	.	.
4D\	.	.	.
4E\	.	.	2b\
4F\	4A/	.	.
[2G\	4B\	.	[2g/
.	4c\	.	.
=36	=36	=36	=36
2G\]	1d	0r	4g/]
.	.	.	4a/
2.D\	.	.	4b\
.	.	.	4cc\
.	2.A/	.	2dd\
4E\	.	.	.
4F\	.	.	[2a/
4G\	4B\	.	.
=37	=37	=37	=37
2A\	4c\	2.A/	4a/]
.	4d\	.	4b\
2.AA/	1e	.	4cc\
.	.	4B\	4dd\
.	.	4c\	1ee
4BB/	.	4d\	.
4C/	[2E/	2e\	.
4D\	.	.	.
=38	=38	=38	=38
[0E	4E/]	2.E/	2r
.	4F/	.	.
.	4G/	.	2.e/
.	4A/	4F/	.
.	2B\	4G/	.
.	.	4A/	4f/
.	[2G/	[2B\	4g/
.	.	.	4a/
=39	=39	=39	=39
0E]	2G/]	2B\]	2b\
.	2A/	1.e	1a
.	1B	.	.
.	.	.	2g#i/
=40	=40	=40	=40
1AA	0A	2.c\	[0a
.	.	4d\	.
1r	.	2e\	.
.	.	2f\	.
=41	=41	=41	=41
1AA	1r	1e	0a]
2C/	1E	1r	.
2C/	.	.	.
=42	=42	=42	=42
1GG	2G/	1d	1r
.	2G/	.	.
1r	1D	2f\	1a
.	.	2f\	.
=43	=43	=43	=43
1C	2r	1e	2cc\
.	2E/	.	2cc\
[1C	2E/	4e\	2g/
.	.	4d\	.
.	2E/	4c\	2g/
.	.	4B\	.
=44	=44	=44	=44
2C/]	2F/	2A/	2a/
2BB/	1E	1G	2b\
1AA	.	.	1cc
.	2C/	2F#i/	.
=45	=45	=45	=45
0GG	0D	1G	0b
.	.	2r	.
.	.	2G/	.
=46	=46	=46	=46
2r	1r	2G/	2r
2C/	.	2G/	2g/
2C/	2r	1c	2g/
2C/	2G/	.	2g/
=47	=47	=47	=47
1G	2G/	0d	1b
.	2G/	.	.
1F	1d	.	1a
=48	=48	=48	=48
2r	1c	2r	2r
1F	.	1f	1a
.	2r	.	.
2F\	[2c\	2f\	2a/
=49	=49	=49	=49
2F\	2c\]	2f\	2a/
2F\	2c\	2f\	2a/
2F\	2c\	2f\	2a/
2F\	2c\	2f\	2a/
=50	=50	=50	=50
1F	2c\	1f	1a
.	2c\	.	.
1C	1c	2e\	1g
.	.	[2g\	.
=51	=51	=51	=51
2r	1G	4g\]	2.dd\
.	.	4f\	.
2.G\	.	1d	.
.	.	.	4cc\
.	1d	.	2b\
4F\	.	.	.
2D\	.	[2f\	[2a/
=52	=52	=52	=52
2F\	2c\	2f\]	2a/]
2G\	2B\	2e\	1g
1D	1A	1d	.
.	.	.	2f#i/
=53	=53	=53	=53
0GG	[0G	1d	0g
.	.	1r	.
=54	=54	=54	=54
*M3/1	*M3/1	*M3/1	*M3/1
*met(3)	*met(3)	*met(3)	*met(3)
0.r	0.G]	1d	0.r
.	.	1d	.
.	.	1d	.
=55	=55	=55	=55
1D	0.r	0f	1a
1D	.	.	1a
1D	.	1f	1a
=56	=56	=56	=56
0F	1A	0c	0a
.	1A	.	.
1F	1A	1r	1a
=57	=57	=57	=57
0C	0c	1e	0g
.	.	1e	.
1r	1c	1e	1r
=58	=58	=58	=58
1E	0G	1.g	1b
1E	.	.	1b
.	.	2f\	.
1E	1r	1e	1b
=59	=59	=59	=59
0G	1B	0d	0g
.	1B	.	.
1G	1B	1r	1g
=60	=60	=60	=60
2D\	0d	1.d	1a
2E\	.	.	.
2F\	.	.	1.b
2G\	.	2B\	.
1A	1c	1c	.
.	.	.	2a/
=61	=61	=61	=61
1F	1A	1d	0a
0E	0B	0e	.
.	.	.	1g#i
=62	=62	=62	=62
*M2/1	*M2/1	*M2/1	*M2/1
*met(C|)	*met(C|)	*met(C|)	*met(C|)
[0AA	0A	2e\	1a
.	.	2.e\	.
.	.	.	2r
.	.	4d\	.
.	.	4c\	[2e/
.	.	4B\	.
=63	=63	=63	=63
0AA]	2r	0c	2e/]
.	1E	.	2e/
.	.	.	2e/
.	2E/	.	2e/
=64	=64	=64	=64
2r	2E/	1r	2.g/
2C/	2E/	.	.
.	.	.	4f/
2C/	1G	2.c\	4e/
.	.	.	4d/
2C/	.	.	[2e/
.	.	4B\	.
=65	=65	=65	=65
2D\	2F/	2A/	4e/]
.	.	.	4d/
2BB/	2D/	2G/	1d
1AA	1E	1A	.
.	.	.	2c#i/
=66	=66	=66	=66
2r	0D	1A	0d
2D\	.	.	.
2D\	.	2r	.
2D\	.	2d\	.
=67	=67	=67	=67
1BB	2r	2d\	1r
.	2d\	2d\	.
1GG	2d\	1B	2r
.	2d\	.	2dd\
=68	=68	=68	=68
2r	1B	1G	2dd\
1GG	.	.	2dd\
.	1G	2r	1b
2GG/	.	[2G/	.
=69	=69	=69	=69
2C/	2r	2G/]	1g
2C/	1G	2G/	.
2C/	.	2c\	2r
2C/	2G/	2c\	[2g/
=70	=70	=70	=70
1C	2c\	2c\	2g/]
.	2c\	2c\	2g/
[1AA	2c\	1c	2cc\
.	2c\	.	2cc\
=71	=71	=71	=71
1AA]	1c	1A	2cc\
.	.	.	2cc\
1r	1A	2r	1cc
.	.	2c\	.
=72	=72	=72	=72
0AA	2r	2.c\	1a
.	2c\	.	.
.	.	4B\	.
.	2.c\	4A/	2r
.	.	4G/	.
.	.	2A/	2cc\
.	4B\	.	.
=73	=73	=73	=73
1AA	4A/	1A	2.cc\
.	4G/	.	.
.	1A	.	.
.	.	.	4b\
[1D	.	2D/	4a/
.	.	.	4g/
.	2D/	[2d\	[2a/
=74	=74	=74	=74
1D]	2F/	2d\]	2a/]
.	2G/	2d\	1g
1D	1A	1d	.
.	.	.	2f#i/
=75	=75	=75	=75
1GG	0G	2r	1g
.	.	1d	.
1GG	.	.	2r
.	.	2d\	[2g/
=76	=76	=76	=76
1C	1r	2e\	2g/]
.	.	2e\	2g/
2C/	2r	1e	2a/
2C/	[2G/	.	2g/
=77	=77	=77	=77
1C	2G/]	2r	0e
.	2G/	1c	.
2r	2A/	.	.
[2C/	2G/	2c\	.
=78	=78	=78	=78
2C/]	1E	2c\	2r
2C/	.	2c\	1e
2C/	2C/	1G	.
2C/	2C/	.	2e/
=79	=79	=79	=79
0GG	0D	2r	2b\
.	.	1G	2b\
.	.	.	1b
.	.	2G/	.
=80	=80	=80	=80
0r	2r	2d\	1a
.	1D	2d\	.
.	.	1d	2r
.	2D/	.	2a/
=81	=81	=81	=81
2r	2A/	1c	2cc\
1AA	2A/	.	2cc\
.	1A	2r	2cc\
2AA/	.	[2c\	2cc\
=82	=82	=82	=82
2E\	1G	4c\]	1b
.	.	4d\	.
2E\	.	4e\	.
.	.	4f\	.
1E	2r	1g	1r
.	2c\	.	.
=83	=83	=83	=83
0D	2B\	2d\	0r
.	4A/	1g	.
.	4G/	.	.
.	1A	.	.
.	.	2f#i\	.
=84	=84	=84	=84
2r	1G	1g	2r
2C/	.	.	2e/
2C/	2r	2r	2e/
2C/	2G/	2c\	2e/
=85	=85	=85	=85
1C	2G/	2c\	1e
.	2G/	2c\	.
2F\	2A/	2d\	2a/
[2E\	[2B\	[2e\	[2g/
=86	=86	=86	=86
4E\]	2B\]	2e\]	4g/]
4D\	.	.	4f/
1C	1A	1E	4e/
.	.	.	4d/
.	.	.	1d
2BB/	2G/	2D/	.
=87	=87	=87	=87
0AAl	0Al	0El	0cl
!	!	!	!
!!LO:LB:i:g=z
=88||	=88||	=88||	=88||
*>B	*>B	*>B	*>B
!!section: Secunda pars: Dominus pars haereditatis meae
!!!OMD:	Secunda pars: Dominus pars haereditatis meae
*k[]	*k[]	*k[]	*k[]
*M2/1	*M2/1	*M2/1	*M2/1
*met(C|)	*met(C|)	*met(C|)	*met(C|)
0r	0r	1r	1.cc
.	.	[1f	.
.	.	.	2cc\
=89	=89	=89	=89
0r	0r	2f\]	1cc
.	.	2f\	.
.	.	1f	1cc
=90	=90	=90	=90
0r	0r	1f	2r
.	.	.	2cc\
.	.	2r	2cc\
.	.	2f\	2cc\
=91	=91	=91	=91
0r	0r	2f\	1dd
.	.	2f\	.
.	.	1g	1b
=92	=92	=92	=92
0r	0r	2e\	2g/
.	.	2c\	1cc
.	.	1d	.
.	.	.	2b\
=93	=93	=93	=93
1r	1.c	0c	0cc
[1F	.	.	.
.	2c\	.	.
=94	=94	=94	=94
2F\]	1c	0r	0r
2F\	.	.	.
1F	1c	.	.
=95	=95	=95	=95
1F	2r	1r	1a
.	2c\	.	.
2r	2c\	1F	1a
2F\	2c\	.	.
=96	=96	=96	=96
2F\	1d	2D/	1a
2F\	.	2D/	.
1G	1B	2.E/	1g
.	.	4D/	.
=97	=97	=97	=97
2E\	2G/	4E/	2g/
.	.	4F/	.
2C/	1c	1G	2e/
1D	.	.	1f
.	2B\	2F/	.
=98	=98	=98	=98
1C	[0c	1G	0e
2r	.	2r	.
2C/	.	2G/	.
=99	=99	=99	=99
2F\	1c]	2A/	2r
2E\	.	2G/	2g/
2F\	2r	2A/	2cc\
2G\	2G/	2G/	2b\
=100	=100	=100	=100
2C/	2c\	1G	2cc\
2r	2B\	.	2dd\
2C/	2c\	2r	2g/
[2G\	2d\	2G/	[2b\
=101	=101	=101	=101
4G\]	1G	2B\	4b\]
4F\	.	.	4a/
2E\	.	2c\	1g
1D	1A	2.d\	.
.	.	.	2f#i/
.	.	4c\	.
=102	=102	=102	=102
1GG	0G	2d\	0g
.	.	1B	.
1r	.	.	.
.	.	[2e\	.
=103	=103	=103	=103
1AA	1r	4e\]	1cc
.	.	4d\	.
.	.	4c\	.
.	.	4B\	.
1AA	1E	1A	1cc
=104	=104	=104	=104
2r	1E	2G/	2r
1AA	.	2.A/	1cc
.	2r	.	.
.	.	4B\	.
2AA/	[2E/	4c\	2cc\
.	.	4d\	.
=105	=105	=105	=105
2C/	2E/]	[0e	2cc\
2C/	2E/	.	2cc\
1C	2G/	.	1g
.	2G/	.	.
=106	=106	=106	=106
2r	1G	1e]	2r
2E\	.	.	2g/
2AA/	2r	2.e\	2a/
2E\	2G/	.	2b\
.	.	4d\	.
=107	=107	=107	=107
2AA/	2A/	2c\	2cc\
2E\	2B\	2B\	2g/
1r	2c\	2A/	2a/
.	2G/	2G/	[2b\
=108	=108	=108	=108
2r	2A/	0r	4b\]
.	.	.	4a/
2C/	2c\	.	1a
2D\	1B	.	.
2E\	.	.	2g#i/
=109	=109	=109	=109
2F\	1A	2r	1a
2C/	.	2.e\	.
2D\	1r	.	2r
.	.	4d\	.
2F\	.	[2d\	2a/
=110	=110	=110	=110
1E	1r	2d\]	1g
.	.	2c#i\	.
1D	2r	1d	2f/
.	2A/	.	2f/
=111	=111	=111	=111
1r	1G	2B\	1e
.	.	2c\	.
2r	2F/	2.A/	1d
2D\	2F/	.	.
.	.	4B\	.
=112	=112	=112	=112
1C	1E	2c\	1r
.	.	2.A/	.
2BB/	1D	.	2r
.	.	4G/	.
2BB/	.	[2G/	2dd\
=113	=113	=113	=113
1AA	1r	2G/]	1cc
.	.	2F#i/	.
1GG	2r	1G	2b\
.	2d\	.	2b\
=114	=114	=114	=114
2r	1c	1r	4a/
.	.	.	4g/
2F\	.	.	4f/
.	.	.	4e/
2G\	2B\	2r	2d/
2F\	2A/	2d\	[2a/
=115	=115	=115	=115
2E\	2B\	1e	4a/]
.	.	.	4g/
2C/	2c\	.	1g
1D	1A	1d	.
.	.	.	2f#i/
=116	=116	=116	=116
0GG	1G	2d\	1g
.	.	1B	.
.	2.d\	.	1r
.	.	2B\	.
.	4d\	.	.
=117	=117	=117	=117
1r	1B	1G	2.dd\
.	.	.	4dd\
2.G\	2r	1r	1b
.	2B\	.	.
4G\	.	.	.
=118	=118	=118	=118
1E	2B\	2.g\	2r
.	2B\	.	2b\
.	.	4g\	.
2r	2G/	1e	2b\
2E\	2G/	.	2b\
=119	=119	=119	=119
2E\	0c	2r	2g/
2E\	.	2e\	2g/
2C/	.	2e\	1cc
2C/	.	2e\	.
=120	=120	=120	=120
0F	0r	2c\	2r
.	.	2c\	2a/
.	.	1f	2cc\
.	.	.	2cc\
=121	=121	=121	=121
1r	1r	2r	2b\
.	.	2d\	2b\
1D	2r	2f\	1a
.	2A/	2f\	.
=122	=122	=122	=122
2C/	2c\	2e\	0r
2C/	2c\	2e\	.
1G	1B	1d	.
=123	=123	=123	=123
2F\	2A/	2r	1a
2D\	1d	2f\	.
1E	.	1g	2.g/
.	2c\	.	.
.	.	.	4a/
=124	=124	=124	=124
1D	2d\	2f\	4b\
.	.	.	4cc\
.	2B\	2d\	1dd
1r	1A	1e	.
.	.	.	2cc#i\
=125	=125	=125	=125
1D	2r	1d	1dd
.	2A/	.	.
4AA/	2c\	2r	2.cc\
4BB/	.	.	.
4C/	2c\	[2e\	.
4D\	.	.	4b\
=126	=126	=126	=126
4E\	2.B\	2e\]	2.g/
4F\	.	.	.
2.G\	.	1d	.
.	4c\	.	4a/
.	2d\	.	4b\
4F\	.	.	4cc\
2G\	2d\	2B\	[2b\
=127	=127	=127	=127
2A\	2c\	2c\	4b\]
.	.	.	4a/
2F\	2A/	2d\	1a
1E	1B	1e	.
.	.	.	2g#i/
=128	=128	=128	=128
1AA	0A	1c	[0a
1r	.	1r	.
=129	=129	=129	=129
1.D	1r	1.f	0a]
.	[1A	.	.
2D\	.	2f\	.
=130	=130	=130	=130
2D\	2A/]	2f\	0r
2C/	2A/	2e\	.
2D\	2A/	2f\	.
2BB/	2G/	2d\	.
=131	=131	=131	=131
0AA	2A/	1c	1.a
.	2F/	.	.
.	1E	2r	.
.	.	2c\	2a/
=132	=132	=132	=132
0r	0r	2d\	2a/
.	.	2e\	2g/
.	.	2f\	2a/
.	.	2d\	2f/
=133	=133	=133	=133
2r	0r	0c	1e
2C/	.	.	.
2C/	.	.	2r
2C/	.	.	2g/
=134	=134	=134	=134
2C/	2r	1r	2g/
2C/	2G/	.	2g/
[1GG	2G/	2r	2g/
.	2G/	2d\	2g/
=135	=135	=135	=135
1GG]	2G/	2d\	1d
.	2G/	2d\	.
2r	1D	2d\	1r
2D\	.	2d\	.
=136	=136	=136	=136
2D\	1r	0A	2r
2D\	.	.	2a/
2D\	2r	.	2a/
2D\	2A/	.	2a/
=137	=137	=137	=137
1AA	2A/	2r	2a/
.	2A/	2c\	2a/
2r	2A/	2c\	1e
2C/	2A/	2c\	.
=138	=138	=138	=138
2C/	1E	2c\	2r
2C/	.	2c\	2.g/
2C/	2.G/	1G	.
.	.	.	4f/
2GG/	.	.	4e/
.	4F/	.	4d/
=139	=139	=139	=139
2AA/	2E/	2r	2c/
2BB/	2D/	2G/	1d
1AA	1E	[1A	.
.	.	.	2c#i/
=140	=140	=140	=140
2r	1D	2A/]	2d/
2GG/	.	2.B\	2dd\
2GG/	2r	.	2dd\
.	.	4c\	.
2GG/	2d\	2d\	2dd\
=141	=141	=141	=141
2GG/	2d\	1G	2dd\
2GG/	2d\	.	2dd\
1D	2d\	2r	1a
.	2d\	2d\	.
=142	=142	=142	=142
2C/	1A	1e	2r
2.AA/	.	.	2.cc\
.	2.c\	1e	.
4BB/	.	.	4b\
2C/	.	.	4a/
.	4B\	.	4g/
=143	=143	=143	=143
2D\	2A/	2d\	2f/
2E\	2G/	2c\	1g
1D	1A	1d	.
.	.	.	2f#i/
=144	=144	=144	=144
0GG	0G	2d\	1.g
.	.	1B	.
.	.	2G/	2e/
=145	=145	=145	=145
1.C	1r	1G	0e
.	[1G	1r	.
2C/	.	.	.
=146	=146	=146	=146
2GG/	2G/]	0r	0r
2C/	2G/	.	.
1BB	2D/	.	.
.	2G/	.	.
=147	=147	=147	=147
1AA	1F	1.c	1r
1r	1E	.	[1g
.	.	2c\	.
=148	=148	=148	=148
0r	0r	2G/	2g/]
.	.	2c\	2g/
.	.	1B	2d/
.	.	.	2g/
=149	=149	=149	=149
1r	1.c	0A	1f
2r	.	.	2.e/
2AA/	2c\	.	.
.	.	.	4f/
=150	=150	=150	=150
2E\	2G/	0r	4g/
.	.	.	4e/
2AA/	2c\	.	1a
2E\	1B	.	.
2E\	.	.	2g#i/
=151	=151	=151	=151
[0AA	[0A	2r	1a
.	.	2e\	.
.	.	2f\	2r
.	.	2e\	2e/
=152	=152	=152	=152
0AA_	0A_	2.c\	2f/
.	.	.	2e/
.	.	4d\	.
.	.	1e	2.c/
.	.	.	4d/
=153	=153	=153	=153
0AA]	0A_	2r	1e
.	.	2e\	.
.	.	2f\	2r
.	.	2e\	2e/
=154	=154	=154	=154
2r	0A]	2.c\	2f/
2AA/	.	.	2e/
.	.	4d\	.
2AA/	.	1e	2.c/
2AA/	.	.	.
.	.	.	4d/
=155	=155	=155	=155
2E\	1r	0r	2e/
2E\	.	.	2b\
1E	2r	.	2cc\
.	2B\	.	2b\
=156	=156	=156	=156
2r	2c\	2r	2g/
2E\	2B\	2B\	2g/
2E\	2G/	2c\	1e
2E\	2G/	2B\	.
=157	=157	=157	=157
2E\	1E	2G/	2r
2E\	.	2G/	2b\
1E	2r	1E	2cc\
.	2B\	.	2b\
=158	=158	=158	=158
2r	2c\	2r	2g/
2E\	2B\	2B\	2g/
2E\	2G/	2c\	1e
2E\	2G/	2B\	.
=159	=159	=159	=159
2E\	1E	2G/	2r
2E\	.	2G/	1b
1E	2r	1E	.
.	[2B\	.	2b\
=160	=160	=160	=160
1E	2B\]	1e	2.g/
.	2B\	.	.
.	.	.	4a/
1E	2.G/	1e	4b\
.	.	.	4cc\
.	.	.	[2b\
.	4A/	.	.
=161	=161	=161	=161
0E	2B\	0e	4b\]
.	.	.	4a/
.	2c\	.	1a
.	1B	.	.
.	.	.	2g#i/
=162	=162	=162	=162
0AAl	0Al	0el	0al
==	==	==	==
*-	*-	*-	*-
!!!RDF**kern: l=long note in original notation
!!!RDF**kern: i=editorial accidental
!!!RDF**kern: V=start of tuplet marker
!!!RDF**kern: Z=end of tuplet marker
!!!ENC:	Chris Gage 05/30/2012
!!!END:	2012/05/31/
!!!EED:	Jesse Rodin
!!!EEV:	2012/06/24/
!!attribution-level@Jos: 5 (doubtful)
!!!ONB:	Translated from MusicXML and edited on 2012/06/24/ by Craig Sapp
!!muse2ps: C^@{COA}?\n@{SCT}^i2I150v85,85,85,150Q16
